X:1
T:"Dance" in Pantomime
T:"Dance" in Pantomime
L:1/8
Q:1/4=120
M:6/8
K:F
V:1 treble 
V:1
"^Allegro" (A/B/) | cAd cAF | EGG G2 B | AcA GBG | AFF F2 :| f3 g3 | agf edc | f3 g3 | ac'=b c'3 | %9
 f3 g3 | agf edc | (d/e/f).d (e/f/g).e | aff f2 || %13

